X:21
T:Charlie O'Neill's
R:highland
D:Desi Wilkinson: The Three Piece Flute
Z:id:hn-hf-21
M:C|
L:1/8
K:A
A2AF ABcA | B2BA BdcB | A2AF ABc2 |1 f<aed c<ABG :|2 f<aed c<AAB ||
|: cAeA fAec | B2BA F<BB2 |1 cAeA fAeg | afed c<AAB :|2 c2 (3cBA d3g | afec dBcB ||

